X:1
T: Johnston's Reel
C:William Marshall
R:Strathspey
Q: 128
K:E
M:4/4
L:1/16
|:E3B G3B E3B e3g|bg3 f3e f3c c3e|E3B G3B E3B e3g|bg3 f3g eee2 e4|
E3B G3B E3B e3g|bg3 f3e f3c c3e|E3B G3B E3B e3g|bg3 f3g eee2 e4|
efga b3e g3e b3e|dB3 f3B a3B f3B|efga b3e g3e b3e|c3a g3f eee2 e4|
efga b3e g3e b3e|dB3 f3B a3B f3B|e3g f3a g3b a3g|f3e f3g eee2 e4:|
